X:1
T:Feed My Lambs
T:Feed My Lambs
T:Marian E. Ogden
T:Julia Carter Aldrich, 1897
T:Public Domain Courtesy of the Cyber Hymnal™
C:Marian E. Ogden
Z:Public Domain
Z:Courtesy of the Cyber Hymnal™
%%score ( 1 2 ) 3
L:1/8
Q:1/4=82
M:2/4
K:Eb
V:1 treble 
V:2 treble 
V:3 bass 
V:1
 [EG]>[EG] [E^F][EG] | [Ec][EB] [EG]E | [DF][DF] [DF]2 | [EG][EG] [EG]2 | [EG]>[EG] [E^F][EG] | %5
w: 1.~Je- sus said with|ten- der plead- ing,|“Feed My lambs,|feed My lambs”;|In this world He’s|
w: 2.~Seek each lit- tle|son and daugh- ter,|“Feed My lambs,|feed My lambs”;|Lead them to the|
w: 3.~Tell them of a|home in glo- ry,|“Feed My lambs,|feed My lambs”;|And re- peat the|
 [Ec][EB] [EG]E | [DF][EG] [DA][B,D] | [B,E]4 ||"^Refrain" [Ec][D=B] [Ec]2 | [EB][E=A] [EB]2 | %10
w: in- ter- ced- ing,|“Feed My pre- cious|lambs.”|||
w: liv- ing wa- ter,|“Feed My pre- cious|lambs.”|“Feed My lambs,|feed My lambs,|
w: old, old sto- ry|To the pre- cious|lambs.|||
 [FA][=EG] [FA][DF] | [EG][FA] [GB][EG] | [Ec][D=B] [Ec]2 | [EB][E=A] [EB]2 | [FA][EG] [DF][FA] | %15
w: |||||
w: If you love Me,”|saith the Sav- ior;|“Feed My lambs,|feed My lambs;|If you love Me,|
w: |||||
 [EG][B,F] [B,E]2 |] %16
w: |
w: feed My lambs.”|
w: |
V:2
 x4 | x3 E | x4 | x4 | x4 | x3 E | x4 | x4 || x4 | x4 | x4 | x4 | x4 | x4 | x4 | x4 |] %16
V:3
 [E,B,]>[E,B,] [E,=A,][E,B,] | [E,A,][E,G,] [E,B,][E,G,] | [B,,B,][B,,B,] [B,,A,]2 | %3
 [E,B,][E,B,] [E,B,]2 | [E,B,]>[E,B,] [E,=A,][E,B,] | [E,A,][E,G,] [E,B,][E,G,] | %6
 [B,,A,][B,,G,] [B,,F,][B,,A,] | [E,G,]4 || [A,,A,][A,,A,] [A,,A,]2 | [E,G,][E,^F,] [E,G,]2 | %10
 [B,,B,][B,,B,] [B,,B,][B,,B,] | [E,B,][E,B,] [E,B,][E,B,] | [A,,A,][A,,A,] [A,,A,]2 | %13
 [E,G,][E,^F,] [E,G,]2 | [B,,B,][B,,B,] [B,,B,][B,,B,] | [B,,B,][B,,A,] [E,,E,G,]2 |] %16

